X: 18960
T: Inis Bearachain, The
R: jig
M: 6/8
K: Gmajor
|:GAB dBA|GBG AGE|DB,D GAB|deg age|
deg edB|GBG AGE|DB,D dBG|1 ABA G2D:|2 ABA Gge||
|:dBA GBd|eag edB|A3 ABd|ede g2d|
edB dBA|GBG AGE|DB,D dBG|1 ABA Gge:|2 ABA G2D||

